X:1
T:What a Gathering
T:Ira David Sankey
T:What a Gathering
T:Public Domain
T:Public Domain
T:Public Domain
C:Ira David Sankey
Z:Public Domain
%%score ( 1 2 ) ( 3 4 )
L:1/8
M:4/4
K:Bb
V:1 treble 
V:2 treble 
V:3 bass 
V:4 bass 
V:1
 [B,D][CE] | [DF][DF][DF][DF] [DF][Fd][Fc][FB] | [EG][EG][EG][FA] [GB]2 [FA][EG] | %3
w: 1.~On that|bright and gold- en morn- ing, when the|Son of Man shall come, And the|
w: 2.~When the|blest, who sleep in Je- sus, at His|bid- ding shall a- rise From the|
w: 3.~When our|eyes be- hold the ci- ty, with its|ma- ny man- sions bright, And its|
w: 4.~O the|King is sure- ly com- ing, and the|time is draw- ing nigh, When the|
 [DF][DF][DF][DF] [DB][FB][EA][DB] | [Fc]6 [FB][Fc] | [Fd][Ge][Fd][Fc] [FB][FB][EA][DB] | %6
w: ra- diance of His glo- ry we shall|see; When from|ev- ’ry clime and na- tion He shall|
w: si- lence of the grave, and from the|sea, And with|bod- ies all ce- les- tial they shall|
w: riv- er, calm and rest- ful, flow- ing|free; When the|friends that death hath part- ed shall in|
w: bless- èd day of prom- ise we shall|see; Then the|chang- ing “in a mo- ment,” “in the|
 [Ec][EB][EA][EG] [DF]2 [B,D][CE] | [DF][DB][DB][FB] [EB][EA] [EG]>[EA] | [DB]6 || %9
w: call His peo- ple home, What a|gath- ’ring of the ran- somed that will|be!|
w: meet Him in the skies, What a|gath- ’ring and re- joic- ing there will|be!|
w: bliss a- gain u- nite, What a|gath- ’ring and a greet- ing there will|be!|
w: twink- ling of an eye,” And for-|ev- er in His pre- sence we shall|be.|
"^Refrain" [B,D]>[CE] | [DF]4 [DB]2 [Fd]>[Fd] | [Ec]4 [EG]2 [=EB]>[EB] | %12
w: |||
w: What a|gath- ’ring, what a|gath- ’ring, What a|
w: |||
w: |||
 [FA][FA][FA][FA] [FA]F[EG][EA] | [DB]>[DB] [EB]>[EG] [DF]2 [B,D]>[CE] | [DF]4 [DB]2 [Fd]>[Fd] | %15
w: |||
w: gath- ’ring of the ran- somed in the|mer land of love! What a gath-|’ring, what a gath-|
w: |||
w: |||
 (c2 d2) [Ge]2 [Fd][Ec] | [DB][DB][DB][DB] [EB]>[EA] [EG]>[EA] | [DB]6 |] %18
w: |||
w: ’ring, * Of the ran-|in that hap- py home a- bove. *||
w: |||
w: |||
V:2
 x2 | x8 | x8 | x8 | x8 | x8 | x8 | x8 | x6 || x2 | x8 | x8 | x5 F x2 | x8 | x8 | G4 x4 | x8 | %17
w: |||||||||||||||||
w: ||||||||||||sum-|||somed||
 x6 |] %18
w: |
w: |
V:3
 [B,,F,][B,,F,] | [B,,B,][B,,B,][B,,B,][B,,B,] [B,,B,][B,,F,][C,A,][D,B,] | %2
w: ~ ~|~ ~ ~ ~ ~ ~ ~ ~|
 [E,B,][E,B,][E,B,][E,B,] [E,B,]2 [E,B,][E,B,] | %3
w: ~ ~ ~ ~ ~ ~ ~|
 [B,,B,][B,,B,][B,,B,][B,,B,] [B,,F,][D,B,][C,F,][B,,F,] | [F,A,]6 [D,B,][C,A,] | %5
w: ~ ~ ~ ~ ~ ~ ~ ~|~ ~ ~|
 [B,,B,][B,,B,][B,,B,][E,A,] [D,B,][D,B,][C,F,][B,,F,] | %6
w: ~ ~ ~ ~ ~ ~ ~ ~|
 [E,G,][E,G,][E,A,][E,B,] [B,,B,]2 [B,,F,][B,,F,] | %7
w: ~ ~ ~ ~ ~ ~ ~|
 [B,,B,][B,,F,][B,,F,][D,B,] [F,C][F,C] [F,C]>F, | [B,,F,]6 || [B,,F,]>[B,,F,] | %10
w: ~ ~ ~ ~ ~ ~ ~ ~|What|a gath-|
 [B,,B,][B,,B,][B,,B,][B,,B,] [B,,F,][B,,F,] [B,,B,]>[B,,B,] | %11
w: ’ring, what a gath- ’ring, what a gath-|
 [E,G,][E,G,][E,G,][E,G,] [E,B,][E,B,] [C,C]>[C,C] | [F,C][F,C][F,C][F,C] [F,C][F,A,][F,B,][F,C] | %13
w: ’ring, what a gath- ’ring, ~ ~ ~|~ ~ ~ ~ ~ ~ ~ ~|
 [B,,B,]>[B,,F,] [E,G,]>[E,B,] [B,,B,]2 [B,,F,]>[B,,F,] | %14
w: ~ ~ ~ ~ What a gath-|
 [B,,B,][B,,B,][B,,B,][B,,B,] [B,,F,][B,,F,] [B,,B,]>[B,,B,] | %15
w: ’ring, what a gath- ’ring, what a gath-|
 ([E,B,]2 [D,=B,]2) [C,C]2 [D,G,][E,G,] | F,F,F,F, [F,,C]>[F,,C] [F,,C]>[F,,F,] | [B,,F,]6 |] %18
w: ’ring, * * * *|||
V:4
 x2 | x8 | x8 | x8 | x8 | x8 | x8 | x15/2 F,/ | x6 || x2 | x8 | x8 | x8 | x8 | x8 | x8 | %16
w: |||||||~|||||||||
 F,F,F,F, x4 | x6 |] %18
w: ||

